X:1104
T:Balquidder Lasses
M:4/4
L:1/8
K:Em
BA|G2E2 EFGA|B2B2e4|d2A2 ABAF|DEFG A2 BA|G2E2 EFGA|B2B2e4|d2A2 BAGF|E6||
B2|e2 ef e2 B2|efgf e2 B^c|d2 de dAFA|DEFG A2A2|e2 ef e2 B2|efgf e2 B^c|
d2A2 BAGF|E6||


